X:136
%%etbk:tnset id:48,pos:2,rep:3x,ant:
%%etbk:wsite http://www.thesession.org/tunes/display/78
%%etbk:pldat 2016-08-04T18:14,2016-08-02T15:34,2015-07-17T10:38,2015-01-28T16:18,2015-01-25T17:17,2015-01-24T12:39,2015-01-17T14:53,2014-12-31T15:46,2014-12-20T15:22,2014-12-17T18:23,2014-12-03T17:36,2014-12-02T17:44,2014-09-11T18:43,2014-04-30T17:15,2014-04-03T19:45,2014-04-02T17:14,2014-02-11T17:37,2013-12-11T19:40,2013-12-10T19:12,2013-11-26T16:26,2013-11-23T16:31,2013-11-20T18:11
T: Eanach Mhic Coilin
Z: Piano Box Version by Martin Fleischmann
H: Created 2013-02-19 /  Last Modified 2014-04-02
M: 4/4
L: 1/8
R: reel
K: Emin
"em"!2!G!3!A|!4!B!1!E!2!G!1!E !1!D!1!E!2!G!3!A|!4!BEGE "bm"!5!dd "em"!4!B!3!A|!4!BEG!1!E !1!D!1!EGA|!4!B!5!ddB "bm"!3!A2 !2!G!3!A|
"em"!4!BEGE DEGA|BEGE "bm"dd BA| "em"BEGE DEGA| B2dB "bm"!3!A2 !1!G!2!A||
 "em"!3!B2!5!ed !3!B!2!A!1!G!2!A|!3!B!4!d!2!ef !4!gge!1!d|!3!B!5!eed BAGA|!3!BAdB "bm"!2!A2!1!G!2!A|
"em"!3!B2ed BAGA|!3!B!4!d!2!ef !4!!3!g3 !4!a|!5!b!3!g!4!a!3!g !2!eede |!4!ge!1!d!3!B "bm"!2!A2||


